packages/core/src/svgs/mpl.svg

<svg width="24" height="24" viewBox="0 0 24 24" fill="none" xmlns="http://www.w3.org/2000/svg">
<g clip-path="url(#clip0_31_14271)">
<path d="M0 0H24V24H0V0Z" fill="#F0F3FA"/>
<path d="M12.0001 6C16.0158 6 19.2858 7.34571 19.2858 9C19.2858 10.56 16.5344 11.8457 12.8572 12V11.4857C12.8915 10.0457 13.1186 10.0714 14.3144 9.46286C14.9958 9.24 15.4286 8.90571 15.4286 8.52C15.4286 7.84714 13.9929 7.29857 12.2144 7.29857C10.4358 7.29857 9.00007 7.84714 9.00007 8.52857C9.00007 8.80286 9.22721 9.05143 9.62578 9.25714C10.8644 9.96857 11.5715 9.78 11.5715 11.5286V12C7.68864 11.94 4.71436 10.62 4.71436 9C4.71436 7.34571 7.9715 6 12.0001 6Z" fill="#FF7900"/>
<path d="M18.9129 11.1431C19.1529 11.4259 19.2858 11.7302 19.2858 12.0388C19.2858 12.9431 18.3944 13.6116 16.7144 14.1431V12.9002C16.7144 12.5574 16.7615 12.5745 17.0872 12.4459C17.7951 12.1711 18.4228 11.7231 18.9129 11.1431ZM15.4286 14.5716C14.3958 14.7988 13.2558 15.0002 11.9958 15.0002C7.98007 15.0002 4.71436 13.6245 4.71436 12.0474C4.71436 11.7302 4.84293 11.4259 5.08721 11.1559C6.01293 12.2531 8.48578 13.0588 11.5715 13.1145V13.5002C11.5715 13.7831 11.7858 14.1431 12.1758 14.1431C12.5658 14.1431 12.8572 13.7702 12.8572 13.5002V13.1016C13.6253 13.0805 14.3905 12.9989 15.1458 12.8574C15.3044 12.8574 15.4286 12.9945 15.4286 13.1488V14.5716Z" fill="#FF7900"/>
<path d="M18.8786 14.1431C19.1401 14.4431 19.2858 14.7731 19.2858 15.1074C19.2858 16.7016 16.0286 18.0002 12.0001 18.0002C7.98436 18.0002 4.71436 16.7016 4.71436 15.1074C4.71436 14.7731 4.87721 14.4431 5.14293 14.1431C6.1415 15.2702 8.81578 15.8574 11.9872 15.8574C13.2515 15.8574 14.5715 15.8574 15.4286 15.7159V16.0845C15.4286 16.3716 15.6515 16.7145 16.0801 16.7145C16.5086 16.7145 16.7144 16.3459 16.7144 16.0716V15.4288C17.7944 15.0945 18.4201 14.6574 18.8786 14.1431Z" fill="#FF7900"/>
</g>
<defs>
<clipPath id="clip0_31_14271">
<rect width="24" height="24" fill="white"/>
</clipPath>
</defs>
</svg>

<svg xmlns="http://www.w3.org/2000/svg" width="24" height="24" fill="none" viewBox="0 0 24 24"><g clip-path="url(#a)"><path fill="#F0F3FA" d="M0 0h24v24H0z"/><path fill="#FF7900" d="M12 6c4.016 0 7.286 1.346 7.286 3 0 1.56-2.752 2.846-6.429 3v-.514c.035-1.44.262-1.415 1.457-2.023.682-.223 1.115-.557 1.115-.943 0-.673-1.436-1.221-3.215-1.221S9 7.847 9 8.529c0 .274.227.522.626.728 1.238.712 1.946.523 1.946 2.272V12c-3.883-.06-6.858-1.38-6.858-3 0-1.654 3.257-3 7.286-3"/><path fill="#FF7900" d="M18.913 11.143c.24.283.373.587.373.896 0 .904-.892 1.573-2.572 2.104V12.9c0-.343.048-.325.373-.454a4.54 4.54 0 0 0 1.826-1.303m-3.484 3.429c-1.033.227-2.173.428-3.433.428-4.016 0-7.282-1.376-7.282-2.953 0-.317.129-.621.373-.891.926 1.097 3.399 1.903 6.485 1.958v.386c0 .283.214.643.604.643s.681-.373.681-.643v-.398a14.6 14.6 0 0 0 2.289-.245.29.29 0 0 1 .283.292z"/><path fill="#FF7900" d="M18.879 14.143c.261.3.407.63.407.964C19.286 16.702 16.029 18 12 18c-4.016 0-7.286-1.298-7.286-2.893 0-.334.163-.664.429-.964.999 1.127 3.673 1.714 6.844 1.714 1.265 0 2.585 0 3.442-.141v.368c0 .288.223.63.651.63s.634-.368.634-.642v-.643c1.08-.335 1.706-.772 2.165-1.286"/></g><defs><clipPath id="a"><path fill="#fff" d="M0 0h24v24H0z"/></clipPath></defs></svg>
